_/img/cemosis-logo.svg

<svg width="523" height="247" viewBox="0 0 523 247" fill="none" xmlns="http://www.w3.org/2000/svg"><path d="M.37 213.691v-14.612c0-9.632 2.814-17.424 8.443-23.379 5.625-5.95 14.015-8.928 25.164-8.928 7.035 0 12.932 1.218 17.696 3.652 4.761 2.435 7.144 5.17 7.144 8.199 0 1.841-.677 3.681-2.03 5.52-1.354 1.841-2.95 2.76-4.789 2.76-.544 0-2.462-.812-5.764-2.436-3.302-1.623-6.956-2.435-10.958-2.435-11.907 0-17.859 5.7-17.859 17.095v14.516c0 11.397 6.007 17.095 18.021 17.095 4.112 0 7.819-.864 11.122-2.598 3.3-1.73 5.276-2.597 5.925-2.597 2.164 0 3.921.867 5.276 2.597 1.353 1.734 2.03 3.572 2.03 5.52 0 3.031-2.491 5.844-7.469 8.443-4.98 2.597-11.04 3.895-18.182 3.895-11.259 0-19.702-2.946-25.327-8.847-5.63-5.899-8.443-13.719-8.443-23.46zm85.073-12.799h26.951c2.38 0 3.977-.32 4.789-.96.812-.639 1.218-1.918 1.218-3.836 0-4.259-1.57-7.879-4.708-10.862-3.14-2.982-7.038-4.476-11.69-4.476-4.546 0-8.442 1.415-11.689 4.235-3.247 2.823-4.87 6.419-4.87 10.787v5.112zm-17.046 13.8v-15.424c0-8.55 3.3-15.936 9.904-22.162 6.6-6.222 14.554-9.334 23.865-9.334 8.873 0 16.479 2.814 22.809 8.446 6.332 5.632 9.498 12.738 9.498 21.316 0 3.312-.38 5.988-1.136 8.027-.758 2.043-1.948 3.477-3.571 4.304-1.624.829-3.141 1.353-4.547 1.573-1.408.222-3.246.331-5.52.331H85.443v3.761c0 5.454 1.948 9.79 5.844 13.006 3.898 3.217 8.984 4.826 15.262 4.826 4.437 0 8.63-1.036 12.582-3.109 3.951-2.068 6.358-3.107 7.226-3.107 1.838 0 3.409.871 4.708 2.607 1.298 1.739 1.948 3.424 1.948 5.052 0 2.673-2.598 5.376-7.794 8.103-5.194 2.729-11.582 4.09-19.157 4.09-11.04 0-20.079-2.974-27.113-8.928-7.036-5.952-10.552-13.745-10.552-23.378z" fill="#99D2BF"/><path d="M148.273 240.018v-65.752c0-1.624.784-2.948 2.355-3.979 1.567-1.027 3.597-1.541 6.088-1.541 2.055 0 3.84.52 5.357 1.56 1.515 1.04 2.274 2.381 2.274 4.022v5.914c4.652-8.312 11.852-12.471 21.593-12.471 4.761 0 9.009 1.504 12.744 4.511 3.733 3.005 6.575 6.968 8.524 11.884 2.704-5.355 6.251-9.427 10.633-12.215 4.384-2.785 9.011-4.18 13.882-4.18 7.684 0 14.312 2.896 19.888 8.685 5.573 5.792 8.361 13.558 8.361 23.299v40.263c0 1.408-.868 2.706-2.597 3.896-1.734 1.192-3.735 1.786-6.008 1.786-2.166 0-4.115-.594-5.844-1.781-1.734-1.187-2.598-2.481-2.598-3.885v-40.16c0-5.29-1.517-9.444-4.546-12.468-3.031-3.024-6.55-4.536-10.552-4.536-4.006 0-7.551 1.512-10.635 4.536-3.085 3.024-4.627 7.07-4.627 12.142v40.647c0 1.837-.84 3.212-2.516 4.129-1.68.919-3.709 1.376-6.089 1.376-2.165 0-4.115-.457-5.844-1.376-1.732-.917-2.597-2.292-2.597-4.129v-40.483c0-4.858-1.49-8.854-4.466-11.985-2.977-3.129-6.522-4.695-10.634-4.695-4.115 0-7.658 1.512-10.634 4.536-2.978 3.024-4.464 7.126-4.464 12.306v40.16c0 1.404-.868 2.698-2.598 3.885-1.732 1.187-3.734 1.781-6.007 1.781-2.383 0-4.384-.594-6.007-1.786-1.624-1.19-2.436-2.488-2.436-3.896zm142.87-25.375c0 4.409 1.624 8.361 4.87 11.854 3.248 3.496 7.145 5.24 11.69 5.24 4.436 0 8.304-1.744 11.608-5.24 3.3-3.493 4.952-7.445 4.952-11.854v-14.838c0-4.301-1.652-8.17-4.952-11.61-3.304-3.44-7.172-5.163-11.608-5.163-4.545 0-8.442 1.723-11.69 5.163-3.246 3.44-4.87 7.309-4.87 11.61v14.838zm-17.048.048v-14.936c0-8.55 3.3-16.018 9.906-22.406 6.6-6.385 14.502-9.577 23.702-9.577 8.982 0 16.828 3.165 23.54 9.497 6.71 6.331 10.067 13.827 10.067 22.486v14.936c0 8.442-3.384 15.938-10.147 22.485-6.766 6.549-14.586 9.823-23.46 9.823-8.985 0-16.832-3.247-23.541-9.742-6.713-6.493-10.067-14.016-10.067-22.566z" fill="#E3B82F"/><path d="M351.375 234.011c0-1.624.572-3.301 1.717-5.033 1.147-1.729 2.536-2.599 4.174-2.599.981 0 2.346.638 4.09 1.908 1.747 1.274 4.091 2.544 7.036 3.816 2.946 1.274 6.491 1.908 10.636 1.908 9.272 0 13.91-2.94 13.91-8.82 0-3.158-1.355-5.637-4.059-7.433-2.707-1.796-5.981-3.212-9.823-4.247a173.021 173.021 0 01-11.445-3.51c-3.791-1.307-7.039-3.539-9.741-6.698-2.707-3.157-4.06-7.242-4.06-12.253 0-6.356 2.273-11.825 6.818-16.407 4.547-4.581 11.528-6.872 20.944-6.872 6.17 0 11.772.948 16.804 2.842 5.032 1.894 7.55 4.14 7.55 6.737 0 1.517-.626 3.275-1.867 5.276-1.247 2.004-2.788 3.004-4.628 3.004-.648 0-2.868-.812-6.656-2.435-3.789-1.624-7.415-2.436-10.877-2.436-4.33 0-7.607.982-9.823 2.94-2.22 1.96-3.328 4.14-3.328 6.535 0 2.613 1.352 4.684 4.059 6.207 2.705 1.525 6.006 2.778 9.904 3.758 3.896.979 7.732 2.175 11.512 3.591 3.78 1.416 6.998 3.865 9.658 7.352 2.662 3.485 3.994 7.951 3.994 13.395 0 7.002-2.491 12.498-7.47 16.484-4.978 3.986-12.012 5.977-21.105 5.977-7.685 0-14.261-1.351-19.725-4.059-5.467-2.702-8.199-5.681-8.199-8.928zm70.46 6.007v-65.752c0-1.624.784-2.948 2.354-3.979 1.567-1.027 3.596-1.541 6.087-1.541 2.489 0 4.547.514 6.171 1.541 1.622 1.031 2.434 2.355 2.434 3.979v65.752c0 1.408-.84 2.706-2.517 3.896-1.679 1.192-3.708 1.786-6.088 1.786-2.381 0-4.383-.594-6.007-1.786-1.624-1.19-2.434-2.488-2.434-3.896z" fill="#C8325A"/><path d="M451.869 234.011c0-1.624.572-3.301 1.717-5.033 1.147-1.729 2.536-2.599 4.173-2.599.982 0 2.347.638 4.091 1.908 1.747 1.274 4.091 2.544 7.036 3.816 2.945 1.274 6.491 1.908 10.636 1.908 9.272 0 13.909-2.94 13.909-8.82 0-3.158-1.354-5.637-4.058-7.433-2.707-1.796-5.982-3.212-9.823-4.247a172.655 172.655 0 01-11.445-3.51c-3.791-1.307-7.039-3.539-9.742-6.698-2.706-3.157-4.06-7.242-4.06-12.253 0-6.356 2.274-11.825 6.819-16.407 4.547-4.581 11.528-6.872 20.944-6.872 6.169 0 11.772.948 16.804 2.842 5.032 1.894 7.549 4.14 7.549 6.737 0 1.517-.625 3.275-1.866 5.276-1.247 2.004-2.788 3.004-4.628 3.004-.648 0-2.868-.812-6.656-2.435-3.79-1.624-7.415-2.436-10.878-2.436-4.329 0-7.606.982-9.822 2.94-2.22 1.96-3.328 4.14-3.328 6.535 0 2.613 1.352 4.684 4.058 6.207 2.706 1.525 6.007 2.778 9.904 3.758 3.896.979 7.732 2.175 11.512 3.591 3.78 1.416 6.999 3.865 9.659 7.352 2.661 3.485 3.993 7.951 3.993 13.395 0 7.002-2.49 12.498-7.469 16.484-4.979 3.986-12.012 5.977-21.105 5.977-7.686 0-14.262-1.351-19.726-4.059-5.466-2.702-8.198-5.681-8.198-8.928z" fill="#99D2BF"/><path d="M38.4 107.427H3.884V72.911H38.4v34.516zm92.041 0H95.925V72.911h34.516v34.516zm46.022 0h-34.515V72.911h34.515v34.516zm46.018 0h-34.514V72.911h34.514v34.516zm46.026 0h-34.515V72.911h34.515v34.516zm46.02 0h-34.516V72.911h34.516v34.516zm46.021 0h-34.516V72.911h34.516v34.516zm46.023 0h-34.516V72.911h34.516v34.516zm46.017 0h-34.516V72.911h34.516v34.516zm46.023 0h-34.516V72.911h34.516v34.516zM38.4 153.444H3.884v-34.516H38.4v34.516zm46.019 0H49.903v-34.516h34.516v34.516zm46.022 0H95.925v-34.516h34.516v34.516zm46.022 0h-34.515v-34.516h34.515v34.516zm46.018 0h-34.514v-34.516h34.514v34.516zm46.026 0h-34.515v-34.516h34.515v34.516zm46.02 0h-34.516v-34.516h34.516v34.516zm92.044 0h-34.516v-34.516h34.516v34.516zm46.017 0h-34.516v-34.516h34.516v34.516zm46.023 0h-34.516v-34.516h34.516v34.516z" stroke="#99D2BF" stroke-width="2" stroke-miterlimit="10"/><path d="M337.583 83.499h-34.516V48.98h34.516V83.5zm-138.678 44.645h-34.516V93.629h34.516v34.515zm92.675 0h-34.516V93.629h34.516v34.515z" stroke="#E3B82F" stroke-width="2" stroke-miterlimit="10"/><path d="M245.583 83.499h-34.516V48.98h34.516V83.5z" fill="#E3B82F" stroke="#E3B82F" stroke-width="1.133" stroke-miterlimit="10"/><path d="M429.58 83.499h-34.516V48.98h34.516V83.5zm92-47.351h-34.516V1.632h34.516v34.516z" stroke="#C8325A" stroke-width="2" stroke-miterlimit="10"/><path d="M475.577 128.144h-34.516V93.629h34.516v34.515z" fill="#C8325A"/></svg>

<svg width="523" height="247" viewBox="0 0 523 247" fill="none" xmlns="http://www.w3.org/2000/svg">
<path d="M0.370361 213.691V199.079C0.370361 189.447 3.18369 181.655 8.81303 175.7C14.4384 169.75 22.8277 166.772 33.977 166.772C41.0117 166.772 46.909 167.99 51.673 170.424C56.4344 172.859 58.817 175.594 58.817 178.623C58.817 180.464 58.1397 182.304 56.7877 184.143C55.433 185.984 53.837 186.903 51.9984 186.903C51.4544 186.903 49.5357 186.091 46.2344 184.467C42.9317 182.844 39.2784 182.032 35.2757 182.032C23.369 182.032 17.417 187.732 17.417 199.127V213.643C17.417 225.04 23.4237 230.738 35.4384 230.738C39.5504 230.738 43.257 229.874 46.5597 228.14C49.8597 226.41 51.8357 225.543 52.485 225.543C54.649 225.543 56.4064 226.41 57.761 228.14C59.1144 229.874 59.7904 231.712 59.7904 233.66C59.7904 236.691 57.2997 239.504 52.3224 242.103C47.3424 244.7 41.2824 245.998 34.1397 245.998C22.881 245.998 14.4384 243.052 8.81303 237.151C3.18369 231.252 0.370361 223.432 0.370361 213.691Z" fill="#99D2BF"/>
<path d="M85.4434 200.892H112.394C114.774 200.892 116.371 200.572 117.183 199.932C117.995 199.293 118.401 198.014 118.401 196.096C118.401 191.837 116.831 188.217 113.693 185.234C110.553 182.252 106.655 180.758 102.003 180.758C97.4567 180.758 93.5607 182.173 90.3141 184.993C87.0674 187.816 85.4434 191.412 85.4434 195.78V200.892ZM68.3967 214.692V199.268C68.3967 190.718 71.6967 183.332 78.3007 177.106C84.9007 170.884 92.8554 167.772 102.166 167.772C111.039 167.772 118.645 170.586 124.975 176.218C131.307 181.85 134.473 188.956 134.473 197.534C134.473 200.846 134.093 203.522 133.337 205.561C132.579 207.604 131.389 209.038 129.766 209.865C128.142 210.694 126.625 211.218 125.219 211.438C123.811 211.66 121.973 211.769 119.699 211.769H85.4434V215.53C85.4434 220.984 87.3914 225.32 91.2874 228.536C95.1847 231.753 100.271 233.362 106.549 233.362C110.986 233.362 115.179 232.326 119.131 230.253C123.082 228.185 125.489 227.146 126.357 227.146C128.195 227.146 129.766 228.017 131.065 229.753C132.363 231.492 133.013 233.177 133.013 234.805C133.013 237.478 130.415 240.181 125.219 242.908C120.025 245.637 113.637 246.998 106.062 246.998C95.0221 246.998 85.9834 244.024 78.9487 238.07C71.9127 232.118 68.3967 224.325 68.3967 214.692Z" fill="#99D2BF"/>
<path d="M148.273 240.018V174.266C148.273 172.642 149.057 171.318 150.628 170.287C152.195 169.26 154.225 168.746 156.716 168.746C158.771 168.746 160.556 169.266 162.073 170.306C163.588 171.346 164.347 172.687 164.347 174.328V180.242C168.999 171.93 176.199 167.771 185.94 167.771C190.701 167.771 194.949 169.275 198.684 172.282C202.417 175.287 205.259 179.25 207.208 184.166C209.912 178.811 213.459 174.739 217.841 171.951C222.225 169.166 226.852 167.771 231.723 167.771C239.407 167.771 246.035 170.667 251.611 176.456C257.184 182.248 259.972 190.014 259.972 199.755V240.018C259.972 241.426 259.104 242.724 257.375 243.914C255.641 245.106 253.64 245.7 251.367 245.7C249.201 245.7 247.252 245.106 245.523 243.919C243.789 242.732 242.925 241.438 242.925 240.034V199.874C242.925 194.584 241.408 190.43 238.379 187.406C235.348 184.382 231.829 182.87 227.827 182.87C223.821 182.87 220.276 184.382 217.192 187.406C214.107 190.43 212.565 194.476 212.565 199.548V240.195C212.565 242.032 211.725 243.407 210.049 244.324C208.369 245.243 206.34 245.7 203.96 245.7C201.795 245.7 199.845 245.243 198.116 244.324C196.384 243.407 195.519 242.032 195.519 240.195V199.712C195.519 194.854 194.029 190.858 191.053 187.727C188.076 184.598 184.531 183.032 180.419 183.032C176.304 183.032 172.761 184.544 169.785 187.568C166.807 190.592 165.321 194.694 165.321 199.874V240.034C165.321 241.438 164.453 242.732 162.723 243.919C160.991 245.106 158.989 245.7 156.716 245.7C154.333 245.7 152.332 245.106 150.709 243.914C149.085 242.724 148.273 241.426 148.273 240.018Z" fill="#E3B82F"/>
<path d="M291.143 214.643C291.143 219.052 292.767 223.004 296.013 226.497C299.261 229.993 303.158 231.737 307.703 231.737C312.139 231.737 316.007 229.993 319.311 226.497C322.611 223.004 324.263 219.052 324.263 214.643V199.805C324.263 195.504 322.611 191.635 319.311 188.195C316.007 184.755 312.139 183.032 307.703 183.032C303.158 183.032 299.261 184.755 296.013 188.195C292.767 191.635 291.143 195.504 291.143 199.805V214.643ZM274.095 214.691V199.755C274.095 191.205 277.395 183.737 284.001 177.349C290.601 170.964 298.503 167.772 307.703 167.772C316.685 167.772 324.531 170.937 331.243 177.269C337.953 183.6 341.31 191.096 341.31 199.755V214.691C341.31 223.133 337.926 230.629 331.163 237.176C324.397 243.725 316.577 246.999 307.703 246.999C298.718 246.999 290.871 243.752 284.162 237.257C277.449 230.764 274.095 223.241 274.095 214.691Z" fill="#E3B82F"/>
<path d="M351.375 234.011C351.375 232.387 351.947 230.71 353.092 228.978C354.239 227.249 355.628 226.379 357.266 226.379C358.247 226.379 359.612 227.017 361.356 228.287C363.103 229.561 365.447 230.831 368.392 232.103C371.338 233.377 374.883 234.011 379.028 234.011C388.3 234.011 392.938 231.071 392.938 225.191C392.938 222.033 391.583 219.554 388.879 217.758C386.172 215.962 382.898 214.546 379.056 213.511C375.214 212.477 371.398 211.307 367.611 210.001C363.82 208.694 360.572 206.462 357.87 203.303C355.163 200.146 353.81 196.061 353.81 191.05C353.81 184.694 356.083 179.225 360.628 174.643C365.175 170.062 372.156 167.771 381.572 167.771C387.742 167.771 393.344 168.719 398.376 170.613C403.408 172.507 405.926 174.753 405.926 177.35C405.926 178.867 405.3 180.625 404.059 182.626C402.812 184.63 401.271 185.63 399.431 185.63C398.783 185.63 396.563 184.818 392.775 183.195C388.986 181.571 385.36 180.759 381.898 180.759C377.568 180.759 374.291 181.741 372.075 183.699C369.855 185.659 368.747 187.839 368.747 190.234C368.747 192.847 370.099 194.918 372.806 196.441C375.511 197.966 378.812 199.219 382.71 200.199C386.606 201.178 390.442 202.374 394.222 203.79C398.002 205.206 401.22 207.655 403.88 211.142C406.542 214.627 407.874 219.093 407.874 224.537C407.874 231.539 405.383 237.035 400.404 241.021C395.426 245.007 388.392 246.998 379.299 246.998C371.614 246.998 365.038 245.647 359.574 242.939C354.107 240.237 351.375 237.258 351.375 234.011Z" fill="#C8325A"/>
<path d="M421.835 240.018V174.266C421.835 172.642 422.619 171.318 424.189 170.287C425.756 169.26 427.785 168.746 430.276 168.746C432.765 168.746 434.823 169.26 436.447 170.287C438.069 171.318 438.881 172.642 438.881 174.266V240.018C438.881 241.426 438.041 242.724 436.364 243.914C434.685 245.106 432.656 245.7 430.276 245.7C427.895 245.7 425.893 245.106 424.269 243.914C422.645 242.724 421.835 241.426 421.835 240.018Z" fill="#C8325A"/>
<path d="M451.869 234.011C451.869 232.387 452.441 230.71 453.586 228.978C454.733 227.249 456.122 226.379 457.759 226.379C458.741 226.379 460.106 227.017 461.85 228.287C463.597 229.561 465.941 230.831 468.886 232.103C471.831 233.377 475.377 234.011 479.522 234.011C488.794 234.011 493.431 231.071 493.431 225.191C493.431 222.033 492.077 219.554 489.373 217.758C486.666 215.962 483.391 214.546 479.55 213.511C475.707 212.477 471.891 211.307 468.105 210.001C464.314 208.694 461.066 206.462 458.363 203.303C455.657 200.146 454.303 196.061 454.303 191.05C454.303 184.694 456.577 179.225 461.122 174.643C465.669 170.062 472.65 167.771 482.066 167.771C488.235 167.771 493.838 168.719 498.87 170.613C503.902 172.507 506.419 174.753 506.419 177.35C506.419 178.867 505.794 180.625 504.553 182.626C503.306 184.63 501.765 185.63 499.925 185.63C499.277 185.63 497.057 184.818 493.269 183.195C489.479 181.571 485.854 180.759 482.391 180.759C478.062 180.759 474.785 181.741 472.569 183.699C470.349 185.659 469.241 187.839 469.241 190.234C469.241 192.847 470.593 194.918 473.299 196.441C476.005 197.966 479.306 199.219 483.203 200.199C487.099 201.178 490.935 202.374 494.715 203.79C498.495 205.206 501.714 207.655 504.374 211.142C507.035 214.627 508.367 219.093 508.367 224.537C508.367 231.539 505.877 237.035 500.898 241.021C495.919 245.007 488.886 246.998 479.793 246.998C472.107 246.998 465.531 245.647 460.067 242.939C454.601 240.237 451.869 237.258 451.869 234.011Z" fill="#99D2BF"/>
<path d="M38.4 107.427H3.88403V72.9106H38.4V107.427Z" stroke="#99D2BF" stroke-width="2" stroke-miterlimit="10"/>
<path d="M130.441 107.427H95.9253V72.9106H130.441V107.427Z" stroke="#99D2BF" stroke-width="2" stroke-miterlimit="10"/>
<path d="M176.463 107.427H141.948V72.9106H176.463V107.427Z" stroke="#99D2BF" stroke-width="2" stroke-miterlimit="10"/>
<path d="M222.481 107.427H187.967V72.9106H222.481V107.427Z" stroke="#99D2BF" stroke-width="2" stroke-miterlimit="10"/>
<path d="M268.507 107.427H233.992V72.9106H268.507V107.427Z" stroke="#99D2BF" stroke-width="2" stroke-miterlimit="10"/>
<path d="M314.527 107.427H280.011V72.9106H314.527V107.427Z" stroke="#99D2BF" stroke-width="2" stroke-miterlimit="10"/>
<path d="M360.548 107.427H326.032V72.9106H360.548V107.427Z" stroke="#99D2BF" stroke-width="2" stroke-miterlimit="10"/>
<path d="M406.571 107.427H372.055V72.9106H406.571V107.427Z" stroke="#99D2BF" stroke-width="2" stroke-miterlimit="10"/>
<path d="M452.588 107.427H418.072V72.9106H452.588V107.427Z" stroke="#99D2BF" stroke-width="2" stroke-miterlimit="10"/>
<path d="M498.611 107.427H464.095V72.9106H498.611V107.427Z" stroke="#99D2BF" stroke-width="2" stroke-miterlimit="10"/>
<path d="M38.4 153.444H3.88403V118.928H38.4V153.444Z" stroke="#99D2BF" stroke-width="2" stroke-miterlimit="10"/>
<path d="M84.4186 153.444H49.9026V118.928H84.4186V153.444Z" stroke="#99D2BF" stroke-width="2" stroke-miterlimit="10"/>
<path d="M130.441 153.444H95.9253V118.928H130.441V153.444Z" stroke="#99D2BF" stroke-width="2" stroke-miterlimit="10"/>
<path d="M176.463 153.444H141.948V118.928H176.463V153.444Z" stroke="#99D2BF" stroke-width="2" stroke-miterlimit="10"/>
<path d="M222.481 153.444H187.967V118.928H222.481V153.444Z" stroke="#99D2BF" stroke-width="2" stroke-miterlimit="10"/>
<path d="M268.507 153.444H233.992V118.928H268.507V153.444Z" stroke="#99D2BF" stroke-width="2" stroke-miterlimit="10"/>
<path d="M314.527 153.444H280.011V118.928H314.527V153.444Z" stroke="#99D2BF" stroke-width="2" stroke-miterlimit="10"/>
<path d="M406.571 153.444H372.055V118.928H406.571V153.444Z" stroke="#99D2BF" stroke-width="2" stroke-miterlimit="10"/>
<path d="M452.588 153.444H418.072V118.928H452.588V153.444Z" stroke="#99D2BF" stroke-width="2" stroke-miterlimit="10"/>
<path d="M498.611 153.444H464.095V118.928H498.611V153.444Z" stroke="#99D2BF" stroke-width="2" stroke-miterlimit="10"/>
<path d="M337.583 83.4987H303.067V48.9813H337.583V83.4987Z" stroke="#E3B82F" stroke-width="2" stroke-miterlimit="10"/>
<path d="M198.905 128.144H164.389V93.6294H198.905V128.144Z" stroke="#E3B82F" stroke-width="2" stroke-miterlimit="10"/>
<path d="M291.58 128.144H257.064V93.6294H291.58V128.144Z" stroke="#E3B82F" stroke-width="2" stroke-miterlimit="10"/>
<path d="M245.583 83.4987H211.067V48.9813H245.583V83.4987Z" fill="#E3B82F" stroke="#E3B82F" stroke-width="1.13333" stroke-miterlimit="10"/>
<path d="M429.58 83.4987H395.064V48.9813H429.58V83.4987Z" stroke="#C8325A" stroke-width="2" stroke-miterlimit="10"/>
<path d="M521.58 36.1479H487.064V1.63196H521.58V36.1479Z" stroke="#C8325A" stroke-width="2" stroke-miterlimit="10"/>
<path d="M475.577 128.144H441.061V93.6294H475.577V128.144Z" fill="#C8325A"/>
</svg>
